assets/arrow.svg

<svg width="16" height="27" viewBox="0 0 16 27" fill="#e94348" xmlns="http://www.w3.org/2000/svg">
<path d="M15.3022 4.0077C16.2333 3.09077 16.2325 1.64471 15.3003 0.728736C14.3113 -0.242912 12.6634 -0.242912 11.6745 0.728737L0.955147 11.2608C-0.318384 12.5121 -0.318381 14.4879 0.955149 15.7392L11.6745 26.2713C12.6634 27.2429 14.3113 27.2429 15.3003 26.2713C16.2325 25.3553 16.2333 23.9092 15.3022 22.9923L7.93355 15.7366C6.66347 14.486 6.66347 12.514 7.93355 11.2634L15.3022 4.0077Z"/>
</svg>

<svg width="16" height="27" fill="#e94348" xmlns="http://www.w3.org/2000/svg"><path d="M15.302 4.008A2.273 2.273 0 0 0 15.3.728c-.989-.97-2.637-.97-3.626 0L.956 11.262a3.102 3.102 0 0 0 0 4.478l10.72 10.532c.988.972 2.636.972 3.625 0a2.273 2.273 0 0 0 .002-3.279l-7.368-7.255a3.102 3.102 0 0 1 0-4.474l7.368-7.255z"/></svg>
